assets/images/home/DigitalHealth.svg

<svg viewBox="0 0 100 100" xmlns="http://www.w3.org/2000/svg"><ellipse cx="50" cy="50" fill="#adcfff" rx="49.33" ry="49.32"/><path d="m42.87 61.48-14.76-14.76-12.91 12.91 18.09 18.08-2.29 3.83 17.8 17.77h1.2a49.33 49.33 0 0 0 49.33-49.31c0-.81 0-1.61-.06-2.41l-30.27-30.3z" fill="#8bbbff"/><path d="m50 81.54h-19v-64.25h19l3.26 32.13z" fill="#005fe0"/><path d="m50 17.29h19v64.25h-19z" fill="#0051be"/><path d="m34.9 21.36h30.2v48.78h-30.2z" fill="#eef4ff"/><path d="m50 21.36h15.1v48.78h-15.1z" fill="#d6e9f8"/><circle cx="50" cy="76.05" fill="#2681ff" r="3.31"/><path d="m53.31 76.05a3.31 3.31 0 0 0 -3.31-3.3v6.61a3.31 3.31 0 0 0 3.31-3.31z" fill="#005fe0"/><circle cx="50" cy="46.72" fill="#00ddc1" r="7.41"/><path d="m57.41 46.72a7.41 7.41 0 0 0 -7.41-7.41v14.82a7.41 7.41 0 0 0 7.41-7.41z" fill="#00baa0"/><path d="m28.11 33.81h-12.91v25.82h12.91l8.89-12.91z" fill="#ff6379"/><path d="m41 59.63h-12.89v-25.82h12.89v10.31l7.33 2.6-7.33 2.6z" fill="#ff1f3e"/><path d="m35.93 44.6h-5.7v-5.69h-4.23v5.69h-5.7v4.24h5.7v5.69h4.23v-5.69h5.7z" fill="#eef4ff"/><path d="m30.23 38.91h-2.12v15.62h2.12v-5.69h5.7v-4.24h-5.7z" fill="#d6e9f8"/></svg>

<svg id="Layer_1" data-name="Layer 1" xmlns="http://www.w3.org/2000/svg" viewBox="0 0 100 100"><defs><style>.cls-1{fill:#adcfff;}.cls-2{fill:#8bbbff;}.cls-3{fill:#005fe0;}.cls-4{fill:#0051be;}.cls-5{fill:#eef4ff;}.cls-6{fill:#d6e9f8;}.cls-7{fill:#2681ff;}.cls-8{fill:#00ddc1;}.cls-9{fill:#00baa0;}.cls-10{fill:#ff6379;}.cls-11{fill:#ff1f3e;}</style></defs><ellipse class="cls-1" cx="50" cy="50" rx="49.33" ry="49.32"/><path class="cls-2" d="M42.87,61.48,28.11,46.72,15.2,59.63,33.29,77.71,31,81.54,48.8,99.31H50A49.33,49.33,0,0,0,99.33,50c0-.81,0-1.61-.06-2.41L69,17.29Z"/><path class="cls-3" d="M50,81.54H31V17.29H50l3.26,32.13Z"/><path class="cls-4" d="M50,17.29H69V81.54H50Z"/><path class="cls-5" d="M34.9,21.36H65.1V70.14H34.9Z"/><path class="cls-6" d="M50,21.36H65.1V70.14H50Z"/><circle class="cls-7" cx="50" cy="76.05" r="3.31"/><path class="cls-3" d="M53.31,76.05A3.31,3.31,0,0,0,50,72.75v6.61A3.31,3.31,0,0,0,53.31,76.05Z"/><circle class="cls-8" cx="50" cy="46.72" r="7.41"/><path class="cls-9" d="M57.41,46.72A7.41,7.41,0,0,0,50,39.31V54.13A7.41,7.41,0,0,0,57.41,46.72Z"/><path class="cls-10" d="M28.11,33.81H15.2V59.63H28.11L37,46.72Z"/><path class="cls-11" d="M41,59.63H28.11V33.81H41V44.12l7.33,2.6L41,49.32Z"/><path class="cls-5" d="M35.93,44.6h-5.7V38.91H26V44.6H20.3v4.24H26v5.69h4.23V48.84h5.7Z"/><path class="cls-6" d="M30.23,38.91H28.11V54.53h2.12V48.84h5.7V44.6h-5.7Z"/></svg>
